static/img/logos/metacto.svg

<svg width="216" height="50" viewBox="0 0 216 50" fill="none" xmlns="http://www.w3.org/2000/svg">
<path fill-rule="evenodd" clip-rule="evenodd" d="M24.6636 38.3502C23.0599 37.6866 21.6498 37.7142 20.1567 38.3225C19.9079 38.4331 19.659 38.5437 19.4101 38.682C18.6083 39.0414 17.8341 39.2626 17.0046 38.7649C16.8664 38.682 16.7281 38.5991 16.6452 38.5438C16.0645 38.212 15.7604 38.0461 15.3733 37.8249C15.2074 37.7419 15.0138 37.6037 14.682 37.4378C14.3502 37.2443 13.9355 37.3548 13.7696 37.6866L13.2719 38.5438L12.7742 39.4009C12.5807 39.7327 12.6913 40.1474 13.0231 40.3133C14.2673 41.0322 14.0737 40.9216 15.3456 41.6405C16.1751 42.1382 16.3963 42.8847 16.4793 43.7695C16.4793 44.2949 16.5346 44.7926 16.6728 45.2903C17.0599 46.7558 18.0276 48.0829 19.4378 48.8848C20.8479 49.6866 22.4516 49.8525 23.9447 49.4654C25.1613 49.1336 26.2949 48.4147 27.0968 47.3641C27.2627 47.1429 27.4009 46.9216 27.5392 46.7004C28.341 45.2903 28.5069 43.6866 28.1198 42.2212C27.7327 40.7557 26.765 39.4562 25.3548 38.6267C25.106 38.5438 24.8848 38.4332 24.6636 38.3502ZM31.742 22.2028C31.5208 21.4286 31.2166 20.682 30.8018 19.9631C30.3871 19.2442 29.8894 18.6083 29.3364 18.0276L29.7235 15.8986C29.7511 15.6774 29.6682 15.4562 29.4747 15.3456L27.0138 13.9355C26.8203 13.8249 26.5714 13.8249 26.3779 13.9908L24.7189 15.4009C23.1705 15.0138 21.5115 14.9862 19.9078 15.4009L18.2765 14.0184C18.0829 13.8526 17.8341 13.8525 17.6406 13.9631L15.1797 15.3733C14.9862 15.4839 14.8756 15.7327 14.9309 15.9262L15.318 18.0553C14.1567 19.2442 13.3548 20.682 12.9124 22.2028L10.894 22.9217C10.6728 23.0046 10.5346 23.2257 10.5346 23.4469V26.2673C10.5346 26.4885 10.6728 26.7097 10.894 26.7649L12.9124 27.4839C13.1336 28.2581 13.4378 29.0046 13.8526 29.7235C14.2673 30.4424 14.765 31.0783 15.318 31.6589L14.9309 33.788C14.8756 34.0369 15.0138 34.258 15.2074 34.3686L15.4562 34.5069H15.4839L15.871 34.7281L17.6682 35.7788C17.8617 35.8894 18.1106 35.8617 18.2765 35.7234L19.9078 34.341C21.4562 34.7281 23.1152 34.7557 24.7189 34.341L26.3502 35.7234C26.5161 35.8617 26.765 35.8894 26.9585 35.7788L29.4193 34.3686C29.6129 34.258 29.7512 34.0369 29.6959 33.788L29.3088 31.6589C30.4701 30.47 31.2719 29.0322 31.7143 27.5115L33.7327 26.7926C33.9539 26.7097 34.0922 26.5161 34.0922 26.2949V23.4746C34.0922 23.2534 33.9539 23.0322 33.7327 22.9493L31.742 22.2028ZM27.2074 22.0369C28.7558 24.7189 27.8433 28.1474 25.1613 29.6958C22.4793 31.2442 19.0507 30.3318 17.5023 27.6498C15.9539 24.9677 16.8664 21.5391 19.5484 19.9907C22.2304 18.4423 25.659 19.3825 27.2074 22.0369ZM9.51152 20.1013C9.31798 20.2396 9.12442 20.3778 8.90323 20.5161C7.49309 21.3456 5.88942 21.4839 4.42398 21.0968C2.95854 20.7097 1.65899 19.7419 0.829501 18.3318C0.691252 18.1106 0.58064 17.8617 0.470041 17.6129C-0.0276548 16.3963 -0.110594 15.0691 0.221203 13.8249C0.6083 12.3594 1.57604 11.0322 2.98618 10.2304C4.39632 9.42852 5.99999 9.26264 7.46543 9.64974C7.96312 9.78799 8.43318 9.98151 8.90323 10.2304C9.70507 10.5898 10.4793 10.811 11.3088 10.3133C12.553 9.59441 12.3595 9.70507 13.6314 8.98617C13.9632 8.79262 14.3779 8.90321 14.5438 9.23501L15.0415 10.0921L15.5392 10.9493C15.7327 11.2811 15.6221 11.6682 15.2903 11.8618C14.9585 12.0553 14.765 12.1659 14.5991 12.2488C14.212 12.47 13.9078 12.6359 13.3272 12.9677C13.2166 13.023 13.106 13.106 12.9677 13.1889C12.1383 13.6866 11.917 14.4332 11.8341 15.318C11.8341 15.5945 11.8065 15.871 11.7788 16.1475C11.5576 17.8064 10.8664 19.0507 9.51152 20.1013ZM35.1982 29.6129C35.3917 29.4746 35.5852 29.3364 35.8064 29.1981C37.2166 28.3963 38.8203 28.2304 40.2857 28.6175C41.7512 29.0046 43.0507 29.9724 43.8802 31.3825C44.0184 31.6037 44.129 31.8525 44.2396 32.1013C44.7373 33.3179 44.8203 34.6451 44.4885 35.8893C44.1014 37.3548 43.1337 38.682 41.7235 39.4839C40.3134 40.2857 38.7097 40.4516 37.2442 40.0645C36.7465 39.9262 36.2765 39.7327 35.8064 39.4839C35.0046 39.1244 34.2304 38.9032 33.4009 39.4009C32.1567 40.1198 32.3502 40.0092 31.0783 40.728C30.7465 40.9216 30.3318 40.811 30.1659 40.4792L29.6682 39.6221L29.1705 38.7649C28.977 38.4331 29.0875 38.0184 29.4193 37.8525C29.7235 37.659 29.9447 37.5483 30.1106 37.4654C30.4977 37.2442 30.8018 37.0784 31.3825 36.7466C31.4931 36.6913 31.6037 36.6083 31.742 36.5253C32.5714 36.0276 32.7926 35.2811 32.8756 34.3963C32.8756 34.1198 32.9032 33.8433 32.9309 33.5668C33.1521 31.8801 33.8157 30.6359 35.1982 29.6129ZM37.1613 36.3042C37.4378 36.5253 37.7696 36.6912 38.1014 36.7742C38.7373 36.94 39.4286 36.8571 40.0369 36.5253C40.2581 36.4147 40.4516 36.2488 40.5899 36.0829C40.894 35.7788 41.1152 35.3917 41.2258 34.9769C41.3917 34.341 41.3088 33.6497 40.977 33.0414C40.6175 32.4331 40.0645 32.0184 39.4286 31.8525C38.7926 31.6866 38.1014 31.7695 37.4931 32.1013C36.8848 32.4608 36.47 33.0138 36.3041 33.6497C36.1382 34.2857 36.2212 34.9769 36.553 35.5852C36.7189 35.8894 36.9124 36.1383 37.1613 36.3042ZM7.54841 13.3825C7.27192 13.1613 6.94009 12.9953 6.60829 12.9124C5.97235 12.7465 5.28111 12.8294 4.67282 13.1612C4.45162 13.2718 4.28573 13.4377 4.11983 13.6036C3.81568 13.9078 3.5945 14.2949 3.4839 14.7097C3.318 15.3456 3.40094 16.0368 3.73273 16.6451C4.09218 17.2534 4.64517 17.6681 5.28111 17.834C5.91706 17.9999 6.60829 17.917 7.21659 17.5852C7.82488 17.2258 8.23965 16.6728 8.40555 16.0368C8.57145 15.4009 8.48847 14.7097 8.15667 14.1014C7.99077 13.8249 7.76961 13.576 7.54841 13.3825ZM11.8065 33.5944C11.8341 33.8433 11.8618 34.0921 11.8618 34.341C11.8618 35.9723 11.1982 37.4378 10.1198 38.5161C9.04148 39.5944 7.57606 40.258 5.94472 40.258C5.66823 40.258 5.41935 40.2304 5.14286 40.2028C3.81567 40.0369 2.65439 39.4285 1.74195 38.5161C0.663608 37.4378 0 35.9723 0 34.341C0 32.7096 0.663608 31.2442 1.74195 30.1659C2.1014 29.8065 2.51615 29.4747 2.95854 29.2258C3.67744 28.7005 4.23041 28.1474 4.23041 27.1797C4.23041 25.7419 4.23041 25.9631 4.23041 24.4976C4.23041 24.1382 4.53457 23.8341 4.89402 23.8341H5.88941H6.88481C7.24425 23.8341 7.54841 24.1382 7.54841 24.4976C7.54841 24.8571 7.54841 25.1059 7.54841 25.2718C7.54841 25.7142 7.54841 26.0737 7.54841 26.7373C7.54841 26.8479 7.54841 26.9861 7.54841 27.1797C7.54841 28.1474 8.10139 28.7005 8.82028 29.2258C9.06913 29.3641 9.29033 29.5299 9.51152 29.6958C10.8664 30.6636 11.5853 31.8802 11.8065 33.5944ZM32.8756 16.0922C32.8479 15.8433 32.8203 15.5944 32.8203 15.3456C32.8203 13.7142 33.4839 12.2489 34.5622 11.1705C35.6405 10.0922 37.106 9.42858 38.7373 9.42858C39.0138 9.42858 39.2627 9.4562 39.5392 9.48385C40.8664 9.64975 42.0276 10.2581 42.9401 11.1705C44.0184 12.2489 44.682 13.7142 44.682 15.3456C44.682 16.9769 44.0184 18.4424 42.9401 19.5207C42.5806 19.8802 42.1659 20.212 41.7235 20.4608C41.0046 20.9862 40.4516 21.5391 40.4516 22.5069C40.4516 23.9447 40.4516 23.7235 40.4516 25.1889C40.4516 25.5483 40.1474 25.8525 39.788 25.8525H38.7926H37.7972C37.4378 25.8525 37.1337 25.5483 37.1337 25.1889C37.1337 24.8294 37.1337 24.5806 37.1337 24.4147C37.1337 23.9723 37.1337 23.6129 37.1337 22.9493C37.1337 22.8387 37.1337 22.7004 37.1337 22.5069C37.1337 21.5391 36.5806 20.9862 35.8617 20.4608C35.6129 20.3226 35.3917 20.1566 35.1705 19.9907C33.8433 19.023 33.0968 17.8065 32.8756 16.0922ZM39.6774 17.7511C40.0092 17.6129 40.3133 17.4193 40.5622 17.1705C41.0322 16.7004 41.3088 16.0645 41.3088 15.3733C41.3088 15.1244 41.2811 14.9032 41.1982 14.6543C41.0876 14.2396 40.8387 13.8525 40.5622 13.5484C40.0921 13.0783 39.4562 12.8019 38.765 12.8019C38.0461 12.8019 37.4101 13.0783 36.9401 13.5484C36.47 14.0184 36.1936 14.6543 36.1936 15.3456C36.1936 16.0645 36.47 16.7004 36.9401 17.1428C37.4101 17.6128 38.0461 17.8894 38.7373 17.8894C39.0968 17.917 39.4009 17.8617 39.6774 17.7511ZM5.0046 31.9354C4.6728 32.0737 4.36868 32.2672 4.11983 32.5161C3.64978 32.9861 3.37327 33.6221 3.37327 34.3134C3.37327 34.5622 3.40095 34.7834 3.4839 35.0322C3.5945 35.4469 3.84333 35.8341 4.11983 36.1383C4.58988 36.6083 5.22583 36.8848 5.94472 36.8848C6.66362 36.8848 7.29955 36.6083 7.74194 36.1383C8.21199 35.6682 8.4885 35.0322 8.4885 34.341C8.4885 33.6221 8.21199 32.9861 7.74194 32.5437C7.2719 32.0737 6.63597 31.7972 5.94472 31.7972C5.61293 31.7696 5.30875 31.8248 5.0046 31.9354ZM22.341 11.8341H22.3963H22.4516H22.5069H22.5622H22.6175H22.6728H22.7281C23.3088 11.7788 23.8894 11.6405 24.4701 11.3917C24.7189 11.2811 24.9678 11.1705 25.2166 11.0322C25.6314 10.8387 26.0184 10.7004 26.4055 10.6728H26.4332H26.4608H26.4885H26.5162H26.5438C26.8756 10.6728 27.2074 10.7557 27.5668 10.9493C27.7051 11.0322 27.8433 11.1152 27.9263 11.1705C28.5069 11.5023 28.811 11.6682 29.1981 11.8894C29.364 11.9723 29.5576 12.1106 29.8894 12.2765C30.2212 12.47 30.6359 12.3595 30.8018 12.0277L31.2995 11.1705L31.7972 10.3133C31.9908 9.98151 31.8802 9.5668 31.5484 9.4009L31.3549 9.29028C31.3272 9.29028 31.3272 9.26269 31.2995 9.26269C30.0553 8.54379 30.4701 8.79258 29.2258 8.07368C28.3963 7.57599 28.1751 6.82947 28.0922 5.94468C28.0922 5.41934 28.0369 4.92165 27.8986 4.3963C27.5115 2.93086 26.5438 1.60371 25.1337 0.801867C24.1936 0.276521 23.1982 0 22.1751 0H22.1198H22.0645H22.0092H21.9539H21.8986H21.8433H21.788H21.7327C21.4009 0.0276498 21.0691 0.0829425 20.7373 0.165892C19.5207 0.497689 18.3871 1.21661 17.5852 2.2673C17.4194 2.4885 17.2811 2.70967 17.1428 2.93087C16.341 4.34101 16.1751 5.94468 16.5622 7.41012C16.9493 8.87555 17.9171 10.1751 19.3272 11.0046C19.5484 11.1152 19.7696 11.2258 19.9908 11.3364C20.8479 11.6959 21.5945 11.8341 22.341 11.8341ZM24.8848 6.30414C24.8295 6.60829 24.7189 6.91246 24.5806 7.18896C24.2212 7.79725 23.6682 8.21198 23.0323 8.37787C22.894 8.40552 22.7558 8.43317 22.6175 8.46082H22.5898H22.5622H22.5346H22.5069H22.4793H22.4516H22.424C21.9816 8.46082 21.5392 8.35021 21.1244 8.10136C20.5161 7.74191 20.1014 7.18892 19.9355 6.55298C19.7696 5.91704 19.8525 5.22576 20.1843 4.61746C20.5438 4.00917 21.0968 3.59444 21.7327 3.42854C21.871 3.40089 22.0092 3.37325 22.1475 3.3456H22.1751H22.2028H22.2304H22.2581H22.2857H22.3134H22.341H22.3687H22.3963H22.424H22.4516C22.6728 3.3456 22.894 3.37324 23.0876 3.42854C23.3088 3.48384 23.53 3.56681 23.7512 3.70506C24.3595 4.06451 24.7742 4.61749 24.9401 5.25344C24.9124 5.58524 24.9401 5.9447 24.8848 6.30414ZM19.8249 43.4101C19.8802 43.1059 19.9908 42.8018 20.129 42.5253C20.4885 41.9171 21.0415 41.5022 21.6774 41.3363C22.3134 41.1704 23.0046 41.2535 23.6129 41.5853C24.2212 41.9447 24.6359 42.4977 24.8018 43.1336C24.9677 43.7696 24.8848 44.4608 24.553 45.0691C24.1936 45.6774 23.6406 46.0921 23.0046 46.258C22.5899 46.3686 22.1475 46.3686 21.7327 46.258C21.5115 46.2027 21.2903 46.1198 21.0691 45.9816C20.4609 45.6221 20.0461 45.0691 19.8802 44.4332C19.7696 44.129 19.7696 43.7695 19.8249 43.4101Z" fill="#F18700"/>
<path fill-rule="evenodd" clip-rule="evenodd" d="M55.4102 37.6866H59.6129V20.0737L67.4931 37.6866H70.424L78.2765 20.0737V37.6866H82.4793V12H77.9723L68.9862 32.1567L59.9724 12H55.4378V37.6866H55.4102ZM216 24.8018C216 17.1152 210.194 11.6682 202.866 11.6682C195.622 11.6682 189.733 17.1152 189.733 24.8018C189.733 32.5161 195.622 37.9631 202.866 37.9631C210.221 37.9631 216 32.5161 216 24.8018ZM194.074 24.8018C194.074 18.9954 197.779 15.3733 202.866 15.3733C207.982 15.3733 211.659 18.9954 211.659 24.8018C211.659 30.6083 207.954 34.3134 202.866 34.3134C197.779 34.2857 194.074 30.6083 194.074 24.8018ZM171.069 15.4285H177.954V37.6866H182.157V15.4285H188.986V12H171.041V15.4285H171.069ZM144.055 24.8018C144.055 32.5161 149.945 37.9355 157.189 37.9355C162.553 37.9355 167.17 35.2811 169.134 30.2489H164.074C162.719 32.9862 160.258 34.2857 157.189 34.2857C152.074 34.2857 148.396 30.6359 148.396 24.8294C148.396 19.023 152.101 15.4009 157.189 15.4009C160.258 15.4009 162.691 16.7005 164.074 19.4378H169.134C167.17 14.4055 162.553 11.7235 157.189 11.7235C149.945 11.6682 144.055 17.1152 144.055 24.8018ZM120 27.4285C120 33.705 124.258 38.046 129.539 38.046C132.94 38.046 135.373 36.4148 136.673 34.6728V37.7142H140.931V17.3364H136.673V20.2949C135.429 18.6359 133.051 17.0046 129.622 17.0046C124.258 17.0046 120 21.1244 120 27.4285ZM136.673 27.4839C136.673 31.8802 133.687 34.3686 130.507 34.3686C127.355 34.3686 124.341 31.8248 124.341 27.4285C124.341 23.0322 127.382 20.6544 130.507 20.6544C133.687 20.6544 136.673 23.1429 136.673 27.4839ZM109.521 32.0461C109.521 36.1935 111.788 37.7142 115.41 37.7142H118.728V34.2028H116.129C114.359 34.2028 113.751 33.5668 113.751 32.0461V20.7649H118.7V17.3364H113.751V12.2765H109.493V17.3364H107.088V20.7649H109.493V32.0461H109.521ZM95.3917 20.5438C98.5438 20.5438 101.005 22.5346 101.088 25.6867H89.8065C90.2489 22.4516 92.5438 20.5438 95.3917 20.5438ZM104.931 31.6313H100.369C99.5945 33.235 98.1567 34.4793 95.5576 34.4793C92.4608 34.4793 90.0553 32.4331 89.7512 29.0875H105.318C105.429 28.3963 105.456 27.7327 105.456 27.0138C105.456 21.0138 101.364 17.0046 95.5576 17.0046C89.5299 17.0046 85.3825 21.0967 85.3825 27.5115C85.3825 33.8986 89.6958 38.046 95.5576 38.046C100.562 38.046 103.797 35.1982 104.931 31.6313Z" fill="#101010"/>
</svg>

<svg xmlns="http://www.w3.org/2000/svg" width="216" height="50" fill="none" viewBox="0 0 216 50"><path fill="#F18700" fill-rule="evenodd" d="M24.664 38.35c-1.604-.663-3.014-.636-4.507-.028-.25.111-.498.222-.747.36-.802.36-1.576.58-2.405.083a11 11 0 0 1-.36-.221c-.58-.332-.885-.498-1.272-.72-.166-.082-.36-.22-.691-.386-.332-.194-.747-.083-.912.249l-.498.857-.498.857c-.193.332-.083.746.25.912 1.243.72 1.05.609 2.322 1.328.83.497 1.05 1.244 1.133 2.129a5.6 5.6 0 0 0 .194 1.52 5.87 5.87 0 0 0 2.765 3.595 6 6 0 0 0 4.507.58 5.93 5.93 0 0 0 3.152-2.1c.166-.222.304-.443.442-.665a5.95 5.95 0 0 0 .58-4.479c-.386-1.465-1.354-2.765-2.764-3.594-.249-.083-.47-.194-.691-.277m7.078-16.147a10 10 0 0 0-.94-2.24 10.2 10.2 0 0 0-1.466-1.935l.388-2.13c.027-.22-.056-.442-.25-.552l-2.46-1.41a.54.54 0 0 0-.636.055l-1.66 1.41a9.8 9.8 0 0 0-4.81 0l-1.632-1.383a.545.545 0 0 0-.635-.055l-2.461 1.41c-.194.11-.304.36-.25.553l.388 2.13a9.9 9.9 0 0 0-2.406 4.147l-2.018.719a.57.57 0 0 0-.36.525v2.82c0 .221.139.443.36.498l2.018.719c.222.774.526 1.52.94 2.24.415.718.913 1.354 1.466 1.935l-.387 2.129a.54.54 0 0 0 .276.58l.25.139h.027l.387.221 1.797 1.05a.54.54 0 0 0 .608-.055l1.632-1.382a9.8 9.8 0 0 0 4.81 0l1.632 1.382a.54.54 0 0 0 .608.056l2.461-1.41a.54.54 0 0 0 .277-.581l-.387-2.13a9.9 9.9 0 0 0 2.405-4.146l2.019-.72a.53.53 0 0 0 .36-.497v-2.82a.57.57 0 0 0-.36-.526zm-4.535-.166a5.604 5.604 0 0 1-2.046 7.659 5.604 5.604 0 0 1-7.659-2.046 5.605 5.605 0 0 1 2.046-7.66c2.682-1.548 6.111-.607 7.66 2.047M9.512 20.1a11 11 0 0 1-.609.415c-1.41.83-3.014.968-4.479.58-1.465-.386-2.765-1.354-3.594-2.764a6 6 0 0 1-.36-.72 5.95 5.95 0 0 1-.249-3.787 5.87 5.87 0 0 1 2.765-3.595 5.95 5.95 0 0 1 4.48-.58 7 7 0 0 1 1.437.58c.802.36 1.576.581 2.406.083 1.244-.719 1.05-.608 2.322-1.327.332-.193.747-.083.913.249l.497.857.498.857a.65.65 0 0 1-.249.913c-.331.193-.525.304-.69.387-.388.221-.692.387-1.273.719-.11.055-.221.138-.36.22-.829.499-1.05 1.245-1.133 2.13 0 .277-.027.553-.055.83-.221 1.658-.913 2.903-2.267 3.953m25.686 9.512c.194-.138.387-.277.608-.415a5.95 5.95 0 0 1 4.48-.58c1.465.387 2.765 1.354 3.594 2.765.138.22.249.47.36.718a5.95 5.95 0 0 1 .248 3.788 5.87 5.87 0 0 1-2.764 3.595 5.95 5.95 0 0 1-4.48.58 7 7 0 0 1-1.438-.58c-.801-.36-1.576-.58-2.405-.083-1.244.719-1.05.608-2.323 1.327-.331.194-.746.083-.912-.249l-.498-.857-.497-.857c-.194-.332-.084-.747.248-.913a7 7 0 0 1 .692-.387c.387-.22.69-.387 1.271-.718.111-.056.222-.139.36-.222.83-.497 1.05-1.244 1.134-2.129 0-.276.027-.553.055-.83.221-1.686.885-2.93 2.267-3.953m1.963 6.691c.277.221.609.387.94.47a2.65 2.65 0 0 0 1.936-.249c.221-.11.415-.276.553-.442.304-.304.525-.691.636-1.106a2.65 2.65 0 0 0-.249-1.936 2.54 2.54 0 0 0-1.548-1.188 2.65 2.65 0 0 0-1.936.248 2.54 2.54 0 0 0-1.189 1.549 2.65 2.65 0 0 0 .249 1.935c.166.304.36.553.608.72M7.548 13.383a2.5 2.5 0 0 0-.94-.47 2.65 2.65 0 0 0-1.935.248c-.221.11-.387.277-.553.443a2.5 2.5 0 0 0-.636 1.106 2.65 2.65 0 0 0 .249 1.935c.36.608.912 1.023 1.548 1.189a2.65 2.65 0 0 0 1.936-.249 2.54 2.54 0 0 0 1.189-1.548 2.65 2.65 0 0 0-.25-1.936 3.1 3.1 0 0 0-.608-.719m4.259 20.211c.027.25.055.498.055.747a5.87 5.87 0 0 1-1.742 4.175 5.87 5.87 0 0 1-4.175 1.742c-.277 0-.526-.028-.802-.055-1.327-.166-2.489-.775-3.401-1.687a5.87 5.87 0 0 1 0-8.35 5.7 5.7 0 0 1 1.217-.94c.718-.525 1.271-1.079 1.271-2.046v-2.682c0-.36.305-.664.664-.664h1.991c.36 0 .663.304.663.664v2.682c0 .967.553 1.52 1.272 2.046.25.138.47.304.692.47 1.354.968 2.073 2.184 2.294 3.898m21.069-17.502a7 7 0 0 1-.056-.746c0-1.632.664-3.097 1.742-4.175a5.87 5.87 0 0 1 4.175-1.742c.277 0 .526.027.802.055 1.327.166 2.489.774 3.401 1.687a5.87 5.87 0 0 1 0 8.35c-.36.36-.774.691-1.216.94-.72.525-1.272 1.078-1.272 2.046v2.682c0 .36-.305.663-.664.663h-1.991a.673.673 0 0 1-.663-.663v-2.682c0-.968-.553-1.52-1.272-2.046-.25-.138-.47-.304-.692-.47-1.327-.968-2.073-2.184-2.294-3.899m6.801 1.66c.332-.14.636-.333.885-.581a2.53 2.53 0 0 0 .747-1.798c0-.249-.028-.47-.11-.719-.111-.414-.36-.802-.637-1.106a2.53 2.53 0 0 0-1.797-.746 2.546 2.546 0 0 0-2.571 2.544c0 .718.276 1.354.746 1.797a2.53 2.53 0 0 0 1.797.746c.36.028.664-.027.94-.138M5.005 31.934a2.7 2.7 0 0 0-.885.581 2.53 2.53 0 0 0-.747 1.797c0 .25.028.47.11.72.111.414.36.801.637 1.105.47.47 1.106.747 1.825.747s1.355-.277 1.797-.747a2.53 2.53 0 0 0 .747-1.797c0-.719-.277-1.355-.747-1.797a2.53 2.53 0 0 0-1.797-.747 2.2 2.2 0 0 0-.94.138m17.336-20.1h.387a5.8 5.8 0 0 0 1.742-.443c.249-.11.498-.221.747-.36.414-.193.801-.332 1.189-.36h.138c.332 0 .663.084 1.023.277.138.083.276.166.36.222.58.331.884.497 1.271.718.166.083.36.222.691.388.332.193.747.083.913-.25l.497-.856.498-.858c.194-.331.083-.746-.249-.912l-.193-.11c-.028 0-.028-.028-.056-.028-1.244-.72-.829-.47-2.073-1.19-.83-.497-1.05-1.244-1.134-2.128a6 6 0 0 0-.193-1.549A5.87 5.87 0 0 0 25.134.802C24.194.277 23.198 0 22.175 0h-.442a6 6 0 0 0-.996.166 5.93 5.93 0 0 0-3.152 2.101 9 9 0 0 0-.442.664 5.95 5.95 0 0 0-.58 4.48c.386 1.465 1.354 2.764 2.764 3.594l.664.331c.857.36 1.604.498 2.35.498m2.544-5.53a3.4 3.4 0 0 1-.304.884 2.54 2.54 0 0 1-1.549 1.189l-.415.083h-.193a2.5 2.5 0 0 1-1.3-.36 2.54 2.54 0 0 1-1.188-1.548 2.65 2.65 0 0 1 .248-1.936 2.54 2.54 0 0 1 1.549-1.188l.415-.083h.304c.22 0 .442.027.636.083.22.055.442.138.663.276a2.55 2.55 0 0 1 1.19 1.548c-.029.332 0 .692-.056 1.051m-5.06 37.105a3.4 3.4 0 0 1 .304-.885 2.54 2.54 0 0 1 1.548-1.189 2.65 2.65 0 0 1 1.936.25 2.54 2.54 0 0 1 1.189 1.548 2.65 2.65 0 0 1-.249 1.935 2.54 2.54 0 0 1-1.548 1.189 2.5 2.5 0 0 1-1.272 0 2.3 2.3 0 0 1-.664-.276 2.54 2.54 0 0 1-1.189-1.549c-.11-.304-.11-.663-.055-1.023" clip-rule="evenodd"/><path fill="#101010" fill-rule="evenodd" d="M55.41 37.687h4.203V20.074l7.88 17.613h2.931l7.852-17.613v17.613h4.203V12h-4.507l-8.986 20.157L59.972 12h-4.534v25.687zM216 24.802c0-7.687-5.806-13.134-13.134-13.134-7.244 0-13.133 5.447-13.133 13.134 0 7.714 5.889 13.161 13.133 13.161 7.355 0 13.134-5.447 13.134-13.161m-21.926 0c0-5.807 3.705-9.429 8.792-9.429 5.116 0 8.793 3.622 8.793 9.429 0 5.806-3.705 9.511-8.793 9.511-5.087-.027-8.792-3.705-8.792-9.511m-23.005-9.373h6.885v22.258h4.203V15.429h6.829V12h-17.945v3.428zm-27.014 9.373c0 7.714 5.89 13.133 13.134 13.133 5.364 0 9.981-2.654 11.945-7.686h-5.06c-1.355 2.737-3.816 4.037-6.885 4.037-5.115 0-8.793-3.65-8.793-9.457 0-5.806 3.705-9.428 8.793-9.428 3.069 0 5.502 1.3 6.885 4.037h5.06c-1.964-5.032-6.581-7.714-11.945-7.714-7.244-.056-13.134 5.391-13.134 13.078M120 27.429c0 6.276 4.258 10.617 9.539 10.617 3.401 0 5.834-1.631 7.134-3.373v3.041h4.258V17.336h-4.258v2.959c-1.244-1.66-3.622-3.29-7.051-3.29-5.364 0-9.622 4.12-9.622 10.424m16.673.055c0 4.396-2.986 6.885-6.166 6.885-3.152 0-6.166-2.544-6.166-6.94s3.041-6.775 6.166-6.775c3.18 0 6.166 2.489 6.166 6.83m-27.152 4.562c0 4.148 2.267 5.668 5.889 5.668h3.318v-3.511h-2.599c-1.77 0-2.378-.636-2.378-2.157V20.765h4.949v-3.429h-4.949v-5.06h-4.258v5.06h-2.405v3.429h2.405v11.281zm-14.13-11.502c3.153 0 5.614 1.99 5.697 5.143H89.807c.442-3.235 2.737-5.143 5.585-5.143m9.54 11.087h-4.562c-.775 1.604-2.212 2.848-4.811 2.848-3.097 0-5.503-2.046-5.807-5.392h15.567c.111-.69.138-1.354.138-2.073 0-6-4.092-10.01-9.898-10.01-6.028 0-10.176 4.093-10.176 10.508 0 6.387 4.314 10.534 10.176 10.534 5.004 0 8.239-2.848 9.373-6.415" clip-rule="evenodd"/></svg>
